X:32
T:L'inconnu de Limoise
I:last changed 14/2/2016
F:http://www.campin.me.uk/Music/Edinbal.abc
C:Maxou Heintzen
M:3/4
L:1/8
Q:3/4=48
K:F
C FG|A3  F BG|A3  A Bc|   B3  A   GF |C3
C FG|A3  F BG|A3  A Bc|   B3  A   GF |G3:|
A Bc|d2 fe de|c3  B AG|   FE FG (3AGF|C3
F FE|D3  E FG|F2 E2 D2|[1 E3  D   EF |G3:|\
                       [2 ED EF   GA |F3|]

